gtk-icons/Papirus-GTK/32x32/apps/pdfeditor.svg

<?xml version="1.0" encoding="UTF-8" standalone="no"?>
<!-- Created with Inkscape (http://www.inkscape.org/) -->
<svg id="svg2817" xmlns:rdf="http://www.w3.org/1999/02/22-rdf-syntax-ns#" xmlns="http://www.w3.org/2000/svg" height="32" width="32" version="1.0" xmlns:cc="http://creativecommons.org/ns#" xmlns:dc="http://purl.org/dc/elements/1.1/">
 <metadata id="metadata57">
  <rdf:RDF>
   <cc:Work rdf:about="">
    <dc:format>image/svg+xml</dc:format>
    <dc:type rdf:resource="http://purl.org/dc/dcmitype/StillImage"/>
    <dc:title/>
   </cc:Work>
  </rdf:RDF>
 </metadata>
 <rect id="rect4419" opacity=".2" ry="1.0526" rx="1" transform="matrix(0,-1,-1,0,0,0)" height="20" width="23" y="-27" x="-25"/>
 <rect id="rect4423" transform="matrix(0,-1,-1,0,0,0)" rx="1" ry="1.0526" height="20" width="23" y="-27" x="-24" fill="#b0322c"/>
 <rect id="rect4445" ry="1.0526" rx="1" transform="matrix(0,-1,-1,0,0,0)" height="20" width="23" y="-23" x="-29" fill="#c03630"/>
 <path id="rect4282" opacity=".3" d="m3 27v1c0 0.554 0.4696 1 1.0527 1h17.894c0.583 0 1.053-0.446 1.053-1v-1c0 0.554-0.47 1-1.053 1h-17.894c-0.5834 0-1.053-0.446-1.053-1z"/>
 <path id="path4447" opacity=".2" d="m4.0526 6c-0.5831 0-1.0526 0.446-1.0526 1v1c0-0.554 0.4695-1 1.0526-1h17.894c0.584 0 1.053 0.446 1.053 1v-1c0-0.554-0.469-1-1.053-1h-17.894z" fill="#fff"/>
 <path id="path4449" opacity=".2" d="m8.0526 1c-0.5831 0-1.0526 0.446-1.0526 1v1c0-0.554 0.4695-1 1.0526-1h17.894c0.584 0 1.053 0.446 1.053 1v-1c0-0.554-0.469-1-1.053-1h-17.894z" fill="#fff"/>
 <path id="path4475" style="color:#bebebe" d="m12.268 11.635c-0.27676 0-0.53557 0.13547-0.59818 0.35904-0.23251 0.85714 0.0277 2.1827 0.46174 3.8344l-0.13093 0.31976c-0.33232 0.81007-0.7477 1.6168-1.113 2.3328-1.508 2.951-2.6812 4.543-3.4635 4.654l-0.003-0.0324c-0.0169-0.36808 0.66228-1.317 1.583-2.0716 0.096-0.0777 0.50583-0.47412 0.50583-0.47412s-0.55314 0.292-0.67743 0.3673c-1.1537 0.68864-1.7277 1.3786-1.8214 1.8366-0.0278 0.13603-0.01 0.30342 0.11024 0.37215l0.29497 0.14816c0.80301 0.40197 1.7905-0.65499 3.1032-2.9557 1.3358-0.43821 3.0026-0.8508 4.5201-1.0744 1.3584 0.77617 2.9166 1.1457 3.5153 0.98616 0.11393-0.0301 0.23377-0.11954 0.29497-0.20192 0.048-0.0758 0.11509-0.37902 0.11509-0.37902s-0.11263 0.15328-0.20538 0.19847c-0.37891 0.17886-1.5752-0.11955-2.8027-0.72015 1.0614-0.11298 1.9456-0.11733 2.4182 0.0337 0.60015 0.19157 0.60068 0.38794 0.59267 0.42795 0.008-0.0329 0.0349-0.16451 0.0316-0.22052-0.0136-0.14403-0.058-0.27265-0.16677-0.37903-0.22216-0.21888-0.77071-0.32918-1.5182-0.33906-0.5634-0.006-1.239 0.0432-1.9723 0.14816-0.33607-0.19298-0.6907-0.40513-0.97171-0.66777-0.71262-0.66556-1.3099-1.5896-1.6808-2.6256 0.0253-0.0993 0.0496-0.19636 0.0717-0.29427 0.1031-0.46363 0.17711-1.9964 0.17711-1.9964s-0.29361 1.1515-0.33974 1.3252c-0.0296 0.11015-0.0665 0.22771-0.10888 0.35009-0.225-0.79077-0.33905-1.5571-0.33905-2.1384 0-0.16428 0.0141-0.48394 0.0606-0.73671 0.0226-0.18027 0.088-0.27388 0.15577-0.31906 0.13414 0.0326 0.2843 0.23824 0.44105 0.58232 0.13461 0.29748 0.1261 0.642 0.1261 0.85523 0 0 0.14437-0.528 0.11096-0.84006-0.0204-0.18735-0.19858-0.6693-0.5775-0.66365h-0.031l-0.16884-0.002zm0.12886 4.7875c0.39212 0.78841 0.9329 1.5371 1.6423 2.1377 0.15814 0.13368 0.3264 0.26085 0.49961 0.38041-1.2883 0.23959-2.6412 0.57661-3.8985 1.1033 0.22734-0.40386 0.47316-0.84387 0.72498-1.3183 0.48764-0.92209 0.78313-1.6333 1.0316-2.3031z" stroke="#fff" stroke-width=".5" fill="#fff"/>
 <circle id="circle4426-9" style="enable-background:new" fill-rule="evenodd" cy="23" cx="21" r="8" fill="#30a7c0"/>
 <path id="path3903" style="enable-background:new" d="m17 25.218v1.782h1.7819l4.5004-4.5004-1.7819-1.7819zm7.8586-4.2891c0.18848-0.18847 0.18848-0.48545 0-0.67393l-1.1137-1.1137c-0.18848-0.18848-0.48546-0.18848-0.67393 0l-0.931 0.937 1.782 1.782z" fill="#fff"/>
 <path id="circle4287" opacity=".3" style="enable-background:new" d="m28.979 22.424a8 8 0 0 1 -7.979 7.576 8 8 0 0 1 -7.979 -7.424 8 8 0 0 0 -0.021 0.424 8 8 0 0 0 8 8 8 8 0 0 0 8 -8 8 8 0 0 0 -0.021 -0.576z" fill-rule="evenodd"/>
</svg>

<?xml version="1.0" encoding="UTF-8" standalone="no"?>
<!-- Created with Inkscape (http://www.inkscape.org/) -->

<svg
   xmlns:dc="http://purl.org/dc/elements/1.1/"
   xmlns:cc="http://creativecommons.org/ns#"
   xmlns:rdf="http://www.w3.org/1999/02/22-rdf-syntax-ns#"
   xmlns:svg="http://www.w3.org/2000/svg"
   xmlns="http://www.w3.org/2000/svg"
   xmlns:sodipodi="http://sodipodi.sourceforge.net/DTD/sodipodi-0.dtd"
   xmlns:inkscape="http://www.inkscape.org/namespaces/inkscape"
   id="svg2817"
   height="32"
   width="32"
   version="1.0"
   inkscape:version="0.91 r13725"
   sodipodi:docname="pdfeditor.svg">
  <sodipodi:namedview
     pagecolor="#ffffff"
     bordercolor="#666666"
     borderopacity="1"
     objecttolerance="10"
     gridtolerance="10"
     guidetolerance="10"
     inkscape:pageopacity="0"
     inkscape:pageshadow="2"
     inkscape:window-width="1548"
     inkscape:window-height="846"
     id="namedview15"
     showgrid="false"
     inkscape:zoom="12.239653"
     inkscape:cx="10.449753"
     inkscape:cy="17.463867"
     inkscape:window-x="52"
     inkscape:window-y="30"
     inkscape:window-maximized="1"
     inkscape:current-layer="svg2817" />
  <metadata
     id="metadata57">
    <rdf:RDF>
      <cc:Work
         rdf:about="">
        <dc:format>image/svg+xml</dc:format>
        <dc:type
           rdf:resource="http://purl.org/dc/dcmitype/StillImage" />
        <dc:title></dc:title>
      </cc:Work>
    </rdf:RDF>
  </metadata>
  <defs
     id="defs2819" />
  <rect
     transform="matrix(0,-1,-1,0,0,0)"
     style="opacity:0.2;fill:#000000;fill-opacity:1;stroke:none"
     id="rect4419"
     width="23"
     height="20"
     x="-25"
     y="-27"
     rx="1"
     ry="1.0526316" />
  <rect
     ry="1.0526316"
     rx="1"
     y="-27"
     x="-24"
     height="20"
     width="23"
     id="rect4423"
     style="fill:#b0322c;fill-opacity:1;stroke:none"
     transform="matrix(0,-1,-1,0,0,0)" />
  <rect
     transform="matrix(0,-1,-1,0,0,0)"
     style="fill:#c03630;fill-opacity:1;stroke:none"
     id="rect4445"
     width="23"
     height="20"
     x="-29"
     y="-23"
     rx="1"
     ry="1.0526316" />
  <path
     style="fill:#000000;fill-opacity:1;stroke:none;opacity:0.3"
     d="M 3 27 L 3 28 C 3 28.554 3.4695765 29 4.0527344 29 L 21.947266 29 C 22.530424 29 23 28.554 23 28 L 23 27 C 23 27.554 22.530424 28 21.947266 28 L 4.0527344 28 C 3.4695765 28 3 27.554 3 27 z "
     id="rect4282" />
  <path
     inkscape:connector-curvature="0"
     id="path4447"
     d="M 4.05263,6 C 3.46947,6 3,6.446 3,7 L 3,8 C 3,7.446 3.46947,7 4.05263,7 L 21.94737,7 C 22.53053,7 23,7.446 23,8 L 23,7 C 23,6.446 22.53053,6 21.94737,6 L 4.05263,6 Z"
     style="opacity:0.2;fill:#ffffff;fill-opacity:1;stroke:none" />
  <path
     inkscape:connector-curvature="0"
     style="opacity:0.2;fill:#ffffff;fill-opacity:1;stroke:none"
     d="M 8.05263,1 C 7.46947,1 7,1.446 7,2 L 7,3 C 7,2.446 7.46947,2 8.05263,2 L 25.94737,2 C 26.53053,2 27,2.446 27,3 L 27,2 C 27,1.446 26.53053,1 25.94737,1 L 8.05263,1 Z"
     id="path4449" />
  <path
     inkscape:connector-curvature="0"
     style="color:#bebebe;display:inline;overflow:visible;visibility:visible;fill:#ffffff;fill-opacity:1;fill-rule:nonzero;stroke:#ffffff;stroke-width:0.5;stroke-miterlimit:4;stroke-dasharray:none;stroke-opacity:1;marker:none;enable-background:accumulate"
     d="m 12.2685,11.63492 c -0.27676,0 -0.53557,0.13547 -0.59818,0.35904 -0.23251,0.85714 0.0277,2.18273 0.46174,3.8344 l -0.13093,0.31976 c -0.33232,0.81007 -0.7477,1.61683 -1.11298,2.33276 C 9.38004,21.43167 8.2068,23.0238 7.4245,23.13536 l -0.003,-0.0324 c -0.0169,-0.36808 0.66228,-1.31704 1.58296,-2.07157 0.096,-0.0777 0.50583,-0.47412 0.50583,-0.47412 0,0 -0.55314,0.292 -0.67743,0.3673 -1.15366,0.68864 -1.72774,1.37859 -1.82139,1.83657 -0.0278,0.13603 -0.01,0.30342 0.11024,0.37215 l 0.29497,0.14816 c 0.80301,0.40197 1.79046,-0.65499 3.10321,-2.95574 1.33583,-0.43821 3.00259,-0.8508 4.52009,-1.07437 1.35843,0.77617 2.91661,1.14573 3.51532,0.98616 0.11393,-0.0301 0.23377,-0.11954 0.29497,-0.20192 0.048,-0.0758 0.11509,-0.37902 0.11509,-0.37902 0,0 -0.11263,0.15328 -0.20538,0.19847 -0.37891,0.17886 -1.57518,-0.11955 -2.80273,-0.72015 1.06141,-0.11298 1.94562,-0.11733 2.41819,0.0337 0.60015,0.19157 0.60068,0.38794 0.59267,0.42795 0.008,-0.0329 0.0349,-0.16451 0.0316,-0.22052 -0.0136,-0.14403 -0.058,-0.27265 -0.16677,-0.37903 -0.22216,-0.21888 -0.77071,-0.32918 -1.51819,-0.33906 -0.5634,-0.006 -1.23898,0.0432 -1.97231,0.14816 -0.33607,-0.19298 -0.6907,-0.40513 -0.97171,-0.66777 -0.71262,-0.66556 -1.30991,-1.58965 -1.68082,-2.62564 0.0253,-0.0993 0.0496,-0.19636 0.0717,-0.29427 0.1031,-0.46363 0.17711,-1.99645 0.17711,-1.99645 0,0 -0.29361,1.15154 -0.33974,1.32522 -0.0296,0.11015 -0.0665,0.22771 -0.10888,0.35009 -0.225,-0.79077 -0.33905,-1.5571 -0.33905,-2.13841 0,-0.16428 0.0141,-0.48394 0.0606,-0.73671 0.0226,-0.18027 0.088,-0.27388 0.15577,-0.31906 0.13414,0.0326 0.2843,0.23824 0.44105,0.58232 0.13461,0.29748 0.1261,0.642 0.1261,0.85523 0,0 0.14437,-0.528 0.11096,-0.84006 -0.0204,-0.18735 -0.19858,-0.6693 -0.5775,-0.66365 l -0.031,0 -0.16884,-0.002 z m 0.12886,4.78749 c 0.39212,0.78841 0.9329,1.53712 1.64226,2.13772 0.15814,0.13368 0.3264,0.26085 0.49961,0.38041 -1.28827,0.23959 -2.64125,0.57661 -3.89848,1.10332 0.22734,-0.40386 0.47316,-0.84387 0.72498,-1.31834 0.48764,-0.92209 0.78313,-1.63332 1.03163,-2.30311 z"
     id="path4475"
     clip-path="none" />
  <circle
     r="8"
     cy="23"
     cx="21"
     style="display:inline;fill:#30a7c0;fill-opacity:1;fill-rule:evenodd;stroke:none;enable-background:new"
     id="circle4426-9" />
  <path
     style="display:inline;fill:#ffffff;fill-opacity:1;stroke:none;enable-background:new"
     sodipodi:nodetypes="cccccccsscccc"
     id="path3903"
     d="M 17,25.2181 17,27 l 1.7819,0 4.50044,-4.50045 -1.78189,-1.78189 z m 7.85864,-4.28913 c 0.18848,-0.18847 0.18848,-0.48545 0,-0.67393 l -1.11368,-1.11368 c -0.18848,-0.18848 -0.48546,-0.18848 -0.67393,0 L 22.1401,20.078 23.922,21.8599 Z"
     inkscape:connector-curvature="0" />
  <path
     style="display:inline;fill:#000000;fill-opacity:1;fill-rule:evenodd;stroke:none;enable-background:new;opacity:0.3"
     d="M 28.978516 22.423828 A 8 8 0 0 1 21 30 A 8 8 0 0 1 13.021484 22.576172 A 8 8 0 0 0 13 23 A 8 8 0 0 0 21 31 A 8 8 0 0 0 29 23 A 8 8 0 0 0 28.978516 22.423828 z "
     id="circle4287" />
</svg>
